X:670
T:Dublin Reel, The
R:reel
H:See also #323, in D
D:Michael Coleman 1925
Z:id:hn-reel-670
M:C|
K:G
gB~B2 GB~B2|gB~B2 dBAB|gB~B2 gbag|fge^c dBAB||
GB~B2 GB~B2|GB~B2 dBAB|GB~B2 GBag|fge^c dBAB||
ad~d2 adbd|ad~d2 dBAB|ad~d2 abag|fgfe dBAB|
ad~d2 bd~d2|ad~d2 dBAB|g2gf gbag|fge^c d2ef||
gbaf gdBd|~g3e dBAB|g2gf gbag|fgfe dBAB|
g2gf gdBd|~g3e dBAB|g2gf g2eg|(3fgf (3efe d2ef||
